; generated by PrusaSlicer 2.4.1+arm64 on 2022-10-31 at 12:58:56 UTC

; 

; external perimeters extrusion width = 0.45mm
; perimeters extrusion width = 0.45mm
; infill extrusion width = 0.45mm
; solid infill extrusion width = 0.45mm
; top infill extrusion width = 0.40mm
; first layer extrusion width = 0.42mm

M73 P0 R28
M73 Q0 S28
M201 X1000 Y1000 Z200 E5000 ; sets maximum accelerations, mm/sec^2
M203 X200 Y200 Z12 E120 ; sets maximum feedrates, mm / sec
M204 P1250 R1250 T1250 ; sets acceleration (P, T) and retract acceleration (R), mm/sec^2
M205 X8.00 Y8.00 Z0.40 E4.50 ; sets the jerk limits, mm/sec
M205 S0 T0 ; sets the minimum extruding and travel feed rate, mm/sec
M107
;TYPE:Custom
M862.3 P "MK3S" ; printer model check
M862.1 P0.4 ; nozzle diameter check
M115 U3.10.1 ; tell printer latest fw version
G90 ; use absolute coordinates
M83 ; extruder relative mode
G28 W ; home all without mesh bed level
G1 Z20 F1000 ;raise Z axis
G1 Y-3 F10000 ;move bed to idle position
;M140 S85 ; set bed temp
M190 S85 ; wait for bed temp
M109 S210 ;wait for extruder temp for PETG
G80 ; mesh bed leveling
G1 Z15 F1000 ;raise Z axis
M104 S230 ; set extruder temp
M109 S230 ; wait for extruder temp

;----Intro line sequence------
G1 Z0.3 F720 ;raise Z axis
G1 Y-3 F1000 ; go outside print area
G92 E0 ;zero extruder
G1 X80 F10000 ; move X-axis
G1 E5 F1000; prime the nozzle
G1 X180 E21 ; intro line
G1 Z0.4 F720 ;raise Z axis
G1 X80 E21 F1000 ; intro line
G1 Z0.8 F720 ;raise Z axis
G1 X180 E21 F1000 ; intro line
G1 Z1.2 F720 ;raise Z axis
M73 P1 R28
M73 Q1 S28
G1 X80 E21 F1000 ; intro line
G1 Z1.6 F720 ;raise Z axis
G1 X180 E21 F1000 ; intro line
G1 Z2 F720 ;raise Z axis
M73 P2 R28
M73 Q2 S28
G1 X80 E21 F1000 ; intro line
G1 X70 F10000 ; quickly move away from intro line
M73 P2 R27
G1 E-0.1 ;retract
G92 E0 ;zero extruder
;--------------------------------------

M221 S95

; Don't change E values below. Excessive value can damage the printer.

G21 ; set units to millimeters
G90 ; use absolute coordinates
M83 ; use relative distances for extrusion
M900 K0.08 ; Filament gcode LA 1.5
M900 K45 ; Filament gcode LA 1.0
M107
;LAYER_CHANGE
;Z:0.2
;HEIGHT:0.2
;BEFORE_LAYER_CHANGE
G92 E0.0
;0.2


G1 E-1 F2100
G1 Z.2 F720
;AFTER_LAYER_CHANGE
;0.2
; printing object One_Hand_Book_Holder.stl id:0 copy 0
G1 Z.4
G1 X115.799 Y96.992 F10800
G1 Z.2 F720
G1 E1 F2100
M204 S800
;TYPE:Perimeter
;WIDTH:0.42
G1 F1200
G1 X116.314 Y96.428 E.02395
G1 X116.869 Y95.888 E.02427
G1 X117.461 Y95.377 E.02451
G1 X118.088 Y94.901 E.02469
G1 X118.745 Y94.463 E.02477
G1 X119.429 Y94.069 E.02476
G1 X120.135 Y93.721 E.02465
G1 X120.857 Y93.422 E.02453
G1 X121.59 Y93.176 E.02423
G1 X122.327 Y92.982 E.0239
G1 X123.065 Y92.843 E.02353
G1 X123.797 Y92.757 E.02312
G1 X124.499 Y92.726 E.02204
G1 X125.222 Y92.743 E.02267
G1 X125.907 Y92.811 E.02158
G1 X126.568 Y92.925 E.02103
G1 X127.2 Y93.081 E.02043
G1 X127.803 Y93.276 E.01987
G1 X128.375 Y93.507 E.01934
G1 X128.912 Y93.77 E.01873
G1 X129.415 Y94.058 E.01818
G1 X129.882 Y94.371 E.01764
G1 X130.315 Y94.703 E.01708
G1 X130.726 Y95.061 E.0171
G1 X131.126 Y95.458 E.01767
G1 X131.508 Y95.895 E.01819
G1 X131.87 Y96.369 E.01872
G1 X132.21 Y96.883 E.0193
G1 X132.521 Y97.436 E.0199
G1 X132.799 Y98.025 E.02043
G1 X133.042 Y98.651 E.02106
G1 X133.242 Y99.308 E.02155
G1 X133.4 Y99.995 E.02209
G1 X133.511 Y100.709 E.02265
G1 X133.571 Y101.443 E.0231
G1 X133.581 Y102.193 E.02352
G1 X133.537 Y102.955 E.02391
G1 X133.44 Y103.721 E.02424
G1 X133.29 Y104.488 E.02449
G1 X133.089 Y105.249 E.02469
G1 X132.836 Y105.997 E.02476
G1 X132.538 Y106.728 E.02475
G1 X132.195 Y107.436 E.02466
G1 X131.812 Y108.118 E.02453
G1 X131.392 Y108.769 E.02427
G1 X130.941 Y109.385 E.02395
G1 X130.462 Y109.965 E.02359
G1 X129.962 Y110.505 E.02307
G1 X129.444 Y111.005 E.02258
G1 X128.913 Y111.464 E.022
G1 X128.372 Y111.882 E.02144
G1 X127.827 Y112.259 E.02078
G1 X127.281 Y112.595 E.0201
G1 X126.737 Y112.893 E.01945
G1 X126.197 Y113.155 E.01882
G1 X125.648 Y113.386 E.01869
G1 X125.075 Y113.595 E.01912
G1 X124.477 Y113.775 E.01959
G1 X123.857 Y113.925 E.01999
G1 X123.217 Y114.04 E.0204
G1 X122.56 Y114.115 E.02072
G1 X121.889 Y114.149 E.02107
G1 X121.209 Y114.137 E.02132
G1 X120.523 Y114.077 E.0216
G1 X119.836 Y113.966 E.02184
G1 X119.154 Y113.8 E.022
G1 X118.483 Y113.582 E.02213
G1 X117.828 Y113.309 E.02225
G1 X117.196 Y112.983 E.02229
G1 X116.588 Y112.602 E.02249
G1 X116.016 Y112.172 E.02243
G1 X115.483 Y111.696 E.0224
G1 X114.99 Y111.177 E.02247
G1 X114.545 Y110.622 E.02229
G1 X114.148 Y110.034 E.02225
G1 X113.801 Y109.419 E.02214
G1 X113.504 Y108.783 E.022
G1 X113.26 Y108.132 E.02181
G1 X113.065 Y107.471 E.0216
G1 X112.918 Y106.807 E.02132
G1 X112.818 Y106.142 E.02109
G1 X112.763 Y105.483 E.02073
G1 X112.749 Y104.833 E.02039
G1 X112.774 Y104.196 E.01998
G1 X112.833 Y103.575 E.01956
G1 X112.923 Y102.972 E.01913
G1 X113.042 Y102.387 E.01871
G1 X113.191 Y101.806 E.0188
G1 X113.376 Y101.214 E.01946
G1 X113.598 Y100.612 E.02012
G1 X113.86 Y100.003 E.02076
G1 X114.163 Y99.391 E.02141
G1 X114.508 Y98.78 E.02201
G1 X114.895 Y98.174 E.02255
G1 X115.325 Y97.575 E.02311
G1 X115.761 Y97.038 E.02169
M204 S1000
G1 X116.085 Y97.238 F10800
M204 S800
;TYPE:External perimeter
G1 F1200
G1 X116.585 Y96.69 E.02326
G1 X117.123 Y96.166 E.02356
G1 X117.698 Y95.671 E.02379
G1 X118.307 Y95.208 E.02396
G1 X118.944 Y94.784 E.02402
G1 X119.607 Y94.402 E.02399
G1 X120.29 Y94.065 E.02388
G1 X120.99 Y93.775 E.02374
G1 X121.698 Y93.537 E.02343
G1 X122.41 Y93.35 E.02309
G1 X123.122 Y93.216 E.0227
G1 X123.827 Y93.134 E.02228
G1 X124.503 Y93.103 E.02121
G1 X125.199 Y93.12 E.02182
G1 X125.856 Y93.185 E.02072
G1 X126.491 Y93.294 E.02018
G1 X127.097 Y93.444 E.01959
G1 X127.675 Y93.631 E.01903
G1 X128.222 Y93.852 E.0185
G1 X128.735 Y94.103 E.01792
G1 X129.216 Y94.379 E.01738
G1 X129.662 Y94.678 E.01686
G1 X130.076 Y94.995 E.01634
G1 X130.469 Y95.337 E.01634
G1 X130.851 Y95.717 E.01687
G1 X131.216 Y96.134 E.01738
G1 X131.563 Y96.588 E.01792
G1 X131.888 Y97.08 E.01848
G1 X132.186 Y97.609 E.01905
G1 X132.453 Y98.174 E.01958
G1 X132.685 Y98.774 E.0202
G1 X132.878 Y99.406 E.02069
G1 X133.029 Y100.066 E.02125
G1 X133.136 Y100.753 E.0218
G1 X133.194 Y101.461 E.02227
G1 X133.204 Y102.185 E.02269
G1 X133.161 Y102.92 E.02309
G1 X133.068 Y103.662 E.02343
G1 X132.922 Y104.403 E.0237
G1 X132.727 Y105.141 E.02391
G1 X132.483 Y105.866 E.02399
G1 X132.193 Y106.574 E.02401
G1 X131.861 Y107.261 E.02392
G1 X131.489 Y107.923 E.02381
G1 X131.081 Y108.555 E.02357
G1 X130.643 Y109.153 E.02326
G1 X130.178 Y109.717 E.0229
G1 X129.692 Y110.241 E.0224
G1 X129.189 Y110.726 E.02193
G1 X128.674 Y111.172 E.02135
G1 X128.15 Y111.578 E.02079
G1 X127.621 Y111.943 E.02015
G1 X127.092 Y112.269 E.01949
G1 X126.564 Y112.558 E.01885
G1 X126.042 Y112.811 E.01821
G1 X125.51 Y113.035 E.01808
G1 X124.956 Y113.237 E.01849
G1 X124.378 Y113.411 E.01893
G1 X123.78 Y113.556 E.0193
G1 X123.162 Y113.666 E.01967
G1 X122.529 Y113.739 E.01997
G1 X121.883 Y113.772 E.02028
G1 X121.229 Y113.76 E.02051
G1 X120.57 Y113.703 E.02075
G1 X119.91 Y113.596 E.02095
G1 X119.257 Y113.437 E.02109
G1 X118.614 Y113.228 E.02119
G1 X117.987 Y112.966 E.02129
G1 X117.383 Y112.655 E.02132
G1 X116.802 Y112.291 E.02149
G1 X116.256 Y111.88 E.02144
G1 X115.746 Y111.425 E.02142
G1 X115.274 Y110.929 E.02148
G1 X114.849 Y110.398 E.02131
G1 X114.469 Y109.835 E.0213
G1 X114.137 Y109.246 E.02121
G1 X113.852 Y108.637 E.02109
G1 X113.617 Y108.012 E.02093
G1 X113.43 Y107.377 E.02076
G1 X113.289 Y106.738 E.02051
G1 X113.193 Y106.098 E.0203
G1 X113.14 Y105.463 E.01998
G1 X113.126 Y104.836 E.01967
G1 X113.15 Y104.221 E.01929
G1 X113.207 Y103.621 E.01891
G1 X113.295 Y103.037 E.0185
G1 X113.41 Y102.472 E.0181
G1 X113.554 Y101.909 E.0182
G1 X113.733 Y101.335 E.01886
G1 X113.949 Y100.752 E.01951
G1 X114.202 Y100.162 E.02014
G1 X114.496 Y99.568 E.02077
G1 X114.831 Y98.974 E.02137
G1 X115.207 Y98.385 E.02191
G1 X115.625 Y97.804 E.02243
G1 X116.047 Y97.284 E.021
M204 S1000
G1 X115.953 Y96.86 F10800
;WIPE_START
G1 F8640
G1 X116.585 Y96.69 E-.1851
G1 X117.123 Y96.166 E-.17352
G1 X117.698 Y95.671 E-.17522
G1 X118.307 Y95.208 E-.17641
G1 X118.944 Y94.784 E-.17688
G1 X119.18 Y94.648 E-.06287
;WIPE_END
G1 E-.05 F2100
G1 Z.4 F720
G1 X109.304 Y91.616 F10800
G1 Z.2 F720
G1 E1 F2100
M204 S800
;TYPE:Perimeter
G1 F1200
G1 X109.442 Y91.555 E.00475
G1 X114.901 Y90.208 E.17628
G1 X119.966 Y88.599 E.16662
G1 X124.914 Y86.659 E.16664
G1 X129.725 Y84.399 E.16666
G1 X134.375 Y81.827 E.16662
G1 X138.848 Y78.955 E.16666
G1 X143.12 Y75.795 E.16662
M73 Q2 S27
G1 X147.177 Y72.36 E.16665
G1 X150.999 Y68.667 E.16664
M73 Q3 S27
G1 X154.682 Y64.607 E.17188
M73 P3 R27
G1 X154.953 Y64.362 E.01144
G1 X155.252 Y64.154 E.01143
G1 X155.725 Y63.933 E.01637
G1 X156.23 Y63.804 E.01635
G1 X156.761 Y63.777 E.01666
G1 X157.123 Y63.818 E.01143
G1 X157.467 Y63.905 E.01113
G1 X157.798 Y64.035 E.01114
G1 X158.107 Y64.207 E.0111
G1 X158.4 Y64.425 E.01145
G1 X158.761 Y64.8 E.01633
G1 X158.963 Y65.092 E.01113
G1 X159.125 Y65.408 E.01114
G1 X159.245 Y65.742 E.01111
G1 X159.32 Y66.089 E.01113
G1 X159.349 Y66.443 E.01113
G1 X159.331 Y66.796 E.01109
G1 X159.268 Y67.146 E.01116
G1 X159.094 Y67.637 E.01634
G1 X158.916 Y67.956 E.01142
G1 X158.703 Y68.243 E.01121
G1 X152.996 Y74.342 E.2619
G1 X146.699 Y79.882 E.26298
G1 X145.654 Y80.775 E.04311
G1 X144.648 Y81.76 E.04412
G1 X143.71 Y82.81 E.04415
G1 X142.847 Y83.922 E.04413
G1 X142.061 Y85.089 E.04412
G1 X141.355 Y86.307 E.04414
G1 X140.734 Y87.57 E.04412
G1 X140.198 Y88.871 E.04412
G1 X139.752 Y90.207 E.04416
G1 X139.399 Y91.568 E.04411
G1 X139.138 Y92.952 E.04413
G1 X138.971 Y94.351 E.0442
G1 X138.862 Y96.786 E.07642
G1 X138.784 Y97.831 E.03284
G1 X138.665 Y98.877 E.03301
G1 X138.503 Y99.925 E.03324
G1 X138.298 Y100.974 E.03352
G1 X138.049 Y102.02 E.03371
G1 X137.756 Y103.061 E.03392
G1 X137.418 Y104.094 E.03407
G1 X137.034 Y105.116 E.03422
G1 X136.607 Y106.124 E.03435
G1 X136.133 Y107.116 E.03447
G1 X135.617 Y108.089 E.03453
G1 X135.057 Y109.042 E.03465
G1 X134.456 Y109.969 E.03464
G1 X133.813 Y110.869 E.03469
G1 X133.131 Y111.74 E.03466
G1 X132.412 Y112.579 E.03466
G1 X131.657 Y113.385 E.03463
G1 X130.869 Y114.155 E.03456
G1 X130.049 Y114.888 E.03448
G1 X129.2 Y115.582 E.03439
G1 X128.324 Y116.237 E.03427
G1 X127.425 Y116.849 E.03413
G1 X126.504 Y117.42 E.03395
G1 X125.564 Y117.948 E.0338
G1 X124.608 Y118.433 E.03362
G1 X123.64 Y118.874 E.03336
G1 X122.66 Y119.272 E.03316
G1 X121.672 Y119.627 E.03292
G1 X120.679 Y119.94 E.03265
G1 X119.681 Y120.212 E.03244
G1 X117.31 Y120.778 E.07641
G1 X115.957 Y121.21 E.04453
G1 X114.637 Y121.734 E.04453
G1 X113.358 Y122.345 E.04446
G1 X112.122 Y123.043 E.04451
G1 X110.937 Y123.824 E.04447
G1 X109.807 Y124.682 E.0445
G1 X108.74 Y125.618 E.04451
G1 X107.738 Y126.623 E.04449
G1 X106.808 Y127.693 E.04447
G1 X105.951 Y128.826 E.04453
G1 X105.176 Y130.014 E.04446
G1 X104.498 Y131.224 E.04349
G1 X100.335 Y138.421 E.26068
G1 X95.513 Y145.167 E.26
G1 X95.279 Y145.433 E.01111
G1 X94.86 Y145.776 E.01698
G1 X94.536 Y145.959 E.01166
G1 X94.191 Y146.097 E.01165
G1 X93.858 Y146.181 E.01077
G1 X93.489 Y146.223 E.01165
G1 X92.957 Y146.196 E.01672
G1 X92.594 Y146.115 E.01167
G1 X92.091 Y145.911 E.017
G1 X91.64 Y145.609 E.01702
G1 X91.263 Y145.232 E.01673
G1 X91.048 Y144.929 E.01163
G1 X90.881 Y144.608 E.01136
G1 X90.757 Y144.267 E.01139
G1 X90.68 Y143.914 E.0113
G1 X90.65 Y143.543 E.01168
G1 X90.698 Y143.003 E.017
G1 X90.85 Y142.491 E.01674
G1 X91.101 Y142.016 E.01686
G1 X94.362 Y137.602 E.17207
G1 X97.235 Y133.13 E.16664
G1 X99.807 Y128.481 E.1666
G1 X102.069 Y123.671 E.16666
G1 X104.009 Y118.724 E.16662
G1 X105.619 Y113.659 E.16663
G1 X106.894 Y108.499 E.16666
G1 X107.826 Y103.267 E.16663
G1 X108.413 Y97.986 E.16661
G1 X108.654 Y92.614 E.1686
G1 X108.703 Y92.344 E.0086
G1 X108.831 Y92.057 E.00987
G1 X109.037 Y91.804 E.01021
G1 X109.252 Y91.647 E.00836
M204 S1000
G1 X109.321 Y91.196 F10800
M204 S800
;TYPE:External perimeter
G1 F1200
G1 X114.799 Y89.845 E.1769
G1 X119.84 Y88.243 E.16584
G1 X124.765 Y86.312 E.16587
G1 X129.553 Y84.063 E.16588
G1 X134.182 Y81.503 E.16585
G1 X138.633 Y78.644 E.16588
G1 X142.886 Y75.499 E.16584
G1 X146.924 Y72.081 E.16587
G1 X150.728 Y68.405 E.16587
G1 X154.415 Y64.339 E.17208
G1 X154.718 Y64.066 E.01279
G1 X155.052 Y63.834 E.01278
G1 X155.223 Y63.739 E.0061
G1 X155.598 Y63.577 E.01281
G1 X155.99 Y63.465 E.01279
G1 X156.181 Y63.43 E.0061
G1 X156.59 Y63.397 E.01287
G1 X156.786 Y63.4 E.00613
G1 X157.191 Y63.446 E.01279
G1 X157.583 Y63.545 E.01268
G1 X157.959 Y63.694 E.01268
G1 X158.312 Y63.89 E.01265
G1 X158.64 Y64.133 E.0128
G1 X158.785 Y64.264 E.00612
G1 X159.058 Y64.566 E.01276
G1 X159.287 Y64.899 E.01268
G1 X159.472 Y65.258 E.01267
G1 X159.609 Y65.638 E.01266
G1 X159.693 Y66.034 E.01269
G1 X159.727 Y66.436 E.01267
G1 X159.707 Y66.839 E.01264
G1 X159.634 Y67.238 E.0127
G1 X159.51 Y67.626 E.01278
G1 X159.432 Y67.805 E.0061
G1 X159.234 Y68.161 E.01279
G1 X158.993 Y68.485 E.01266
G1 X153.259 Y74.613 E.26314
G1 X146.946 Y80.167 E.26364
G1 X145.909 Y81.054 E.04279
G1 X144.921 Y82.02 E.04333
G1 X144 Y83.052 E.04335
G1 X143.152 Y84.143 E.04333
G1 X142.381 Y85.289 E.04332
G1 X141.688 Y86.485 E.04334
G1 X141.078 Y87.725 E.04333
G1 X140.552 Y89.002 E.04332
G1 X140.114 Y90.314 E.04335
G1 X139.767 Y91.651 E.04331
G1 X139.511 Y93.009 E.04333
G1 X139.347 Y94.382 E.04336
G1 X139.238 Y96.809 E.07616
G1 X139.159 Y97.866 E.03324
G1 X139.039 Y98.927 E.03348
G1 X138.875 Y99.99 E.03372
G1 X138.667 Y101.054 E.03399
G1 X138.415 Y102.114 E.03419
G1 X138.117 Y103.171 E.03441
G1 X137.774 Y104.219 E.03457
G1 X137.385 Y105.255 E.03472
G1 X136.951 Y106.279 E.03486
G1 X136.47 Y107.286 E.03498
G1 X135.947 Y108.273 E.03504
G1 X135.378 Y109.24 E.03516
G1 X134.767 Y110.181 E.03516
G1 X134.115 Y111.095 E.03521
G1 X133.423 Y111.979 E.03519
G1 X132.693 Y112.831 E.03519
G1 X131.926 Y113.649 E.03515
G1 X131.126 Y114.431 E.03509
G1 X130.294 Y115.175 E.035
G1 X129.432 Y115.879 E.03491
G1 X128.543 Y116.544 E.03479
G1 X127.63 Y117.166 E.03464
G1 X126.696 Y117.744 E.03445
G1 X125.742 Y118.281 E.03431
G1 X124.772 Y118.773 E.03412
G1 X123.789 Y119.221 E.03385
G1 X122.795 Y119.624 E.03365
G1 X121.793 Y119.985 E.0334
G1 X120.785 Y120.302 E.03312
G1 X119.774 Y120.577 E.03286
G1 X117.412 Y121.141 E.07615
G1 X116.084 Y121.565 E.04369
G1 X114.788 Y122.08 E.04372
G1 X113.532 Y122.68 E.04365
G1 X112.319 Y123.365 E.0437
G1 X111.155 Y124.132 E.04367
G1 X110.046 Y124.975 E.04369
G1 X108.998 Y125.893 E.0437
G1 X108.014 Y126.88 E.04369
G1 X107.101 Y127.931 E.04366
G1 X106.26 Y129.043 E.04372
G1 X105.499 Y130.209 E.04365
G1 X104.826 Y131.411 E.04317
G1 X100.652 Y138.625 E.26133
G1 X95.812 Y145.397 E.26099
M73 Q4 S27
G1 X95.541 Y145.705 E.01287
M73 P4 R27
G1 X95.225 Y145.979 E.01312
G1 X95.062 Y146.095 E.00626
G1 X94.7 Y146.299 E.01305
G1 X94.314 Y146.454 E.01304
G1 X93.92 Y146.553 E.01272
G1 X93.507 Y146.6 E.01303
G1 X93.091 Y146.592 E.01305
G1 X92.893 Y146.569 E.00626
G1 X92.487 Y146.478 E.01306
G1 X92.097 Y146.334 E.01302
G1 X91.915 Y146.244 E.00637
G1 X91.738 Y146.143 E.00637
G1 X91.4 Y145.901 E.01305
G1 X91.098 Y145.616 E.01303
G1 X90.966 Y145.465 E.00628
G1 X90.726 Y145.126 E.01303
G1 X90.535 Y144.76 E.01294
G1 X90.394 Y144.372 E.01296
G1 X90.306 Y143.97 E.0129
G1 X90.273 Y143.555 E.01306
G1 X90.276 Y143.355 E.00627
G1 X90.326 Y142.939 E.01313
G1 X90.37 Y142.744 E.00626
G1 X90.5 Y142.349 E.01304
G1 X90.682 Y141.975 E.01305
G1 X90.788 Y141.804 E.00631
G1 X94.051 Y137.387 E.17218
G1 X96.911 Y132.937 E.16587
G1 X99.471 Y128.309 E.16582
G1 X101.722 Y123.522 E.16588
G1 X103.653 Y118.598 E.16584
G1 X105.256 Y113.557 E.16585
G1 X106.525 Y108.421 E.16588
G1 X107.453 Y103.213 E.16585
G1 X108.036 Y97.956 E.16584
G1 X108.278 Y92.572 E.169
G1 X108.337 Y92.245 E.0104
G1 X108.409 Y92.048 E.00658
G1 X108.509 Y91.858 E.00673
G1 X108.633 Y91.684 E.00671
G1 X108.78 Y91.528 E.00671
G1 X108.945 Y91.393 E.00671
G1 X109.266 Y91.22 E.01141
M204 S1000
G1 X109.626 Y91.455 F10800
;WIPE_START
G1 F8640
G1 X113.259 Y90.228 E-.95
;WIPE_END
G1 E-.05 F2100
G1 Z.4 F720
G1 X159.003 Y65.417 F10800
G1 Z.2 F720
G1 E1 F2100
