; generated by PrusaSlicer 2.4.2+win64 on 2022-07-12 at 06:09:55 UTC

; 

; external perimeters extrusion width = 0.45mm
; perimeters extrusion width = 0.45mm
; infill extrusion width = 0.45mm
; solid infill extrusion width = 0.45mm
; top infill extrusion width = 0.40mm
; support material extrusion width = 0.35mm
; first layer extrusion width = 0.42mm

M73 P0 R116
M73 Q0 S116
M201 X1000 Y1000 Z200 E5000 ; sets maximum accelerations, mm/sec^2
M203 X200 Y200 Z12 E120 ; sets maximum feedrates, mm / sec
M204 P1250 R1250 T1250 ; sets acceleration (P, T) and retract acceleration (R), mm/sec^2
M205 X8.00 Y8.00 Z0.40 E4.50 ; sets the jerk limits, mm/sec
M205 S0 T0 ; sets the minimum extruding and travel feed rate, mm/sec
M107
;TYPE:Custom
M862.3 P "MK3S" ; printer model check
M862.1 P0.4 ; nozzle diameter check
M115 U3.10.1 ; tell printer latest fw version
G90 ; use absolute coordinates
M83 ; extruder relative mode
G28 W ;home all without mesh bed level
G1 Z30 F1000
G1 Y-10 F1000 ; go outside print area
M140 S85 ; set bed temp
M190 S85 ; wait for bed temp
M104 S200 ; set PETG extruder temp
M109 S200 ; wait for PETG extruder temp

G80 ; mesh bed leveling
G1 Y-3 F1000 ; go outside print area
G1 Z10 F1000 
M104 S230 ; set extruder temp
M109 S230 ; wait for extruder temp
G1 Z0.2 F720
G92 E0
G1 X20 F1000 ; go draw intro line
G1 X80 E9 F1000 ; intro line
G1 X160 E12.5 F1000 ; intro line
G28 W ;home all without mesh bed level

G80 ; mesh bed leveling
G1 Z10 F1000 
M83 ; extruder relative mode
G1 Y-3 F1000 ; go outside print area
G1 X165 F1000 ; go continuous draw intro line 
G1 Z0.2 F720
G92 E0
G1 X200 E9 F1000 ; intro line
G1 X250 E12.5 F1000 ; intro line
G92 E0
M221 S95

; Don't change E values below. Excessive value can damage the printer.

G21 ; set units to millimeters
G90 ; use absolute coordinates
M83 ; use relative distances for extrusion
M900 K0.08 ; Filament gcode LA 1.5
M900 K45 ; Filament gcode LA 1.0
M107
;LAYER_CHANGE
;Z:0.28
;HEIGHT:0.28
;BEFORE_LAYER_CHANGE
G92 E0.0
;0.28


G1 E-1 F2100
G1 Z.2 F720
G1 Z.28
;AFTER_LAYER_CHANGE
;0.28
G1 Z.48
G1 X74.874 Y83.436 F2700
G1 Z.28 F720
G1 E1 F2100
M204 S800
;TYPE:Skirt/Brim
;WIDTH:0.42
M73 P0 R115
G1 F1200
G1 X76.136 Y82.546 E.06473
G1 X78.231 Y81.569 E.09684
G1 X80.031 Y81.161 E.07734
G1 X103.984 Y80.928 E1.00361
G1 X136.74 Y80.938 E1.37237
G1 X163.397 Y81.665 E1.11727
M73 Q0 S115
G1 X164.769 Y81.926 E.05852
G1 X175.11 Y85.69 E.46109
G1 X176.68 Y86.682 E.0778
G1 X177.571 Y87.944 E.06473
G1 X180.22 Y93.626 E.26265
G1 X180.626 Y95.332 E.07346
G1 X181.1 Y110.395 E.63141
G1 X180.839 Y112.023 E.06909
G1 X176.118 Y124.994 E.57834
G1 X175.126 Y126.564 E.0778
G1 X173.864 Y127.454 E.06473
G1 X171.769 Y128.431 E.09684
G1 X169.969 Y128.839 E.07734
G1 X146.016 Y129.072 E1.00361
G1 X113.26 Y129.062 E1.37237
G1 X86.603 Y128.335 E1.11727
G1 X85.231 Y128.074 E.05852
G1 X74.89 Y124.31 E.46109
G1 X73.32 Y123.318 E.0778
G1 X72.43 Y122.056 E.06473
G1 X69.78 Y116.374 E.26265
G1 X69.374 Y114.668 E.07346
G1 X68.9 Y99.605 E.63141
G1 X69.161 Y97.977 E.06909
G1 X73.882 Y85.006 E.57834
G1 X74.842 Y83.487 E.07528
M204 S1000
; printing object 0106 - 복사본 (2).stl id:0 copy 0
;WIPE_START
G1 F2160
G1 X75.674 Y82.882 E-.95
;WIPE_END
G1 E-.05 F2100
G1 Z.48 F720
G1 X110.336 Y87.601 F2700
G1 Z.28 F720
G1 E1 F2100
M204 S800
;TYPE:Support material
G1 F1200
G1 X110.735 Y86.507 E.04878
G1 X112.829 Y85.53 E.09684
G1 X119.183 Y87.842 E.28327
G1 X119.581 Y86.748 E.04878
G1 X121.676 Y85.772 E.09684
G1 X128.029 Y88.084 E.28327
G1 X128.427 Y86.99 E.04878
G1 X130.522 Y86.013 E.09684
G1 X134.246 Y87.369 E.16602
G1 X134.644 Y86.275 E.04878
G1 X136.739 Y85.298 E.09684
G1 X143.092 Y87.61 E.28327
G1 X143.49 Y86.516 E.04878
G1 X145.585 Y85.54 E.09684
G1 X151.938 Y87.852 E.28327
G1 X152.336 Y86.758 E.04878
G1 X154.431 Y85.781 E.09684
G1 X160.785 Y88.094 E.28327
G1 X161.183 Y87 E.04878
G1 X163.277 Y86.023 E.09684
G1 X173.619 Y89.787 E.46109
G1 X174.596 Y91.882 E.09684
G1 X174.198 Y92.976 E.04877
G1 X175.292 Y93.374 E.04878
G1 X176.268 Y95.469 E.09684
G1 X173.956 Y101.822 E.28327
G1 X175.05 Y102.22 E.04878
G1 X176.027 Y104.315 E.09684
G1 X174.671 Y108.039 E.16602
G1 X175.765 Y108.437 E.04878
G1 X176.742 Y110.532 E.09684
G1 X172.021 Y123.503 E.57834
G1 X169.926 Y124.48 E.09684
G1 X163.573 Y122.167 E.28327
G1 X163.175 Y123.261 E.04878
G1 X161.08 Y124.238 E.09684
G1 X154.727 Y121.926 E.28327
G1 X154.328 Y123.02 E.04877
G1 X152.234 Y123.996 E.09684
G1 X148.51 Y122.641 E.16602
G1 X148.112 Y123.735 E.04878
G1 X146.017 Y124.712 E.09684
G1 X139.664 Y122.399 E.28327
G1 X139.265 Y123.493 E.04877
G1 X137.171 Y124.47 E.09684
G1 X130.817 Y122.158 E.28327
M73 P1 R115
M73 Q1 S115
G1 X130.419 Y123.252 E.04878
G1 X128.324 Y124.228 E.09684
G1 X121.971 Y121.916 E.28327
G1 X121.573 Y123.01 E.04877
G1 X119.478 Y123.987 E.09684
G1 X115.754 Y122.631 E.16602
G1 X115.356 Y123.725 E.04878
G1 X113.261 Y124.702 E.09684
G1 X106.908 Y122.39 E.28327
G1 X106.51 Y123.484 E.04878
G1 X104.415 Y124.46 E.09684
G1 X98.062 Y122.148 E.28327
G1 X97.664 Y123.242 E.04878
G1 X95.569 Y124.219 E.09684
G1 X89.215 Y121.906 E.28327
G1 X88.817 Y123 E.04878
G1 X86.723 Y123.977 E.09684
G1 X76.381 Y120.213 E.46109
G1 X75.404 Y118.118 E.09684
G1 X75.802 Y117.024 E.04877
G1 X74.708 Y116.626 E.04877
G1 X73.732 Y114.531 E.09684
G1 X76.044 Y108.178 E.28327
G1 X74.95 Y107.78 E.04878
G1 X73.973 Y105.685 E.09684
G1 X75.329 Y101.961 E.16602
G1 X74.235 Y101.563 E.04878
G1 X73.258 Y99.468 E.09684
G1 X77.979 Y86.497 E.57834
G1 X80.074 Y85.52 E.09684
G1 X86.427 Y87.833 E.28327
G1 X86.825 Y86.739 E.04878
G1 X88.92 Y85.762 E.09684
G1 X95.273 Y88.074 E.28327
G1 X95.672 Y86.98 E.04878
G1 X97.766 Y86.004 E.09684
G1 X101.49 Y87.359 E.16602
G1 X101.888 Y86.265 E.04878
G1 X103.983 Y85.288 E.09684
G1 X110.286 Y87.582 E.28101
M204 S1000
;WIPE_START
G1 F2160
G1 X109.319 Y87.23 E-.95
;WIPE_END
G1 E-.05 F2100
G1 Z.48 F720
G1 X175.142 Y93.82 F2700
G1 Z.28 F720
G1 E1 F2100
M204 S800
G1 F1200
G1 X175.055 Y93.632 E.00866
G1 X174.813 Y93.545 E.01076
G1 X175.83 Y95.725 E.10081
G1 X175.637 Y96.257 E.02369
G1 X174.282 Y93.351 E.13432
M204 S1000
;WIPE_START
G1 F2160
G1 X174.717 Y94.283 E-.95
;WIPE_END
G1 E-.05 F2100
G1 Z.48 F720
G1 X174.408 Y107.815 F2700
G1 Z.28 F720
G1 E1 F2100
M204 S800
G1 F1200
G1 X164.638 Y86.863 E.9686
G1 X165.169 Y87.056 E.02369
G1 X174.602 Y107.284 E.93509
G1 X174.795 Y106.752 E.02369
G1 X165.701 Y87.25 E.90158
G1 X166.232 Y87.443 E.02369
G1 X174.988 Y106.221 E.86807
G1 X175.182 Y105.689 E.02369
G1 X166.764 Y87.637 E.83456
G1 X167.295 Y87.83 E.02369
G1 X173.703 Y101.571 E.63523
G1 X173.896 Y101.04 E.02369
G1 X167.827 Y88.023 E.60173
G1 X168.358 Y88.217 E.02369
G1 X174.089 Y100.508 E.56822
G1 X174.283 Y99.977 E.02369
G1 X168.889 Y88.41 E.53471
G1 X169.421 Y88.604 E.02369
G1 X174.476 Y99.445 E.5012
G1 X174.67 Y98.914 E.02369
G1 X169.952 Y88.797 E.46769
G1 X170.484 Y88.991 E.02369
G1 X174.863 Y98.383 E.43418
G1 X175.057 Y97.851 E.02369
G1 X171.015 Y89.184 E.40067
G1 X171.547 Y89.377 E.02369
G1 X175.25 Y97.32 E.36716
G1 X175.443 Y96.788 E.02369
G1 X172.078 Y89.571 E.33365
G1 X172.609 Y89.764 E.02369
G1 X173.964 Y92.67 E.13432
G1 X174.158 Y92.138 E.02369
G1 X173.141 Y89.958 E.10081
G1 X173.382 Y90.046 E.01076
G1 X173.47 Y90.233 E.00866
M204 S1000
;WIPE_START
G1 F2160
G1 X173.382 Y90.046 E-.19101
G1 X173.141 Y89.958 E-.23719
G1 X173.38 Y90.47 E-.52179
;WIPE_END
G1 E-.05 F2100
G1 Z.48 F720
G1 X174.9 Y102.666 F2700
G1 Z.28 F720
G1 E1 F2100
M204 S800
G1 F1200
G1 X174.813 Y102.479 E.00866
G1 X174.517 Y102.371 E.01321
G1 X175.569 Y104.627 E.10428
G1 X175.375 Y105.158 E.02369
G1 X173.985 Y102.177 E.13779
M204 S1000
;WIPE_START
G1 F2160
G1 X174.42 Y103.11 E-.95
;WIPE_END
G1 E-.05 F2100
G1 Z.48 F720
G1 X175.619 Y108.89 F2700
G1 Z.28 F720
G1 E1 F2100
M204 S800
G1 F1200
G1 X175.529 Y108.695 E.009
G1 X175.205 Y108.577 E.01444
G1 X176.274 Y110.871 E.10601
G1 X176.081 Y111.402 E.02369
G1 X174.673 Y108.384 E.13952
M204 S1000
;WIPE_START
G1 F2160
G1 X175.108 Y109.316 E-.95
;WIPE_END
G1 E-.05 F2100
G1 Z.48 F720
G1 X164.469 Y86.801 F2700
G1 Z.28 F720
G1 E1 F2100
M204 S800
G1 F1200
G1 X164.106 Y86.669 E.01616
G1 X175.887 Y111.934 E1.16793
G1 X175.694 Y112.465 E.02369
G1 X163.575 Y86.476 E1.20144
G1 X163.293 Y86.373 E.01258
G1 X163.123 Y86.453 E.00786
G1 X175.5 Y112.996 E1.22709
G1 X175.307 Y113.528 E.02369
G1 X162.76 Y86.622 E1.24384
G1 X162.398 Y86.791 E.01675
G1 X175.114 Y114.059 E1.2606
G1 X174.92 Y114.591 E.02369
G1 X162.036 Y86.96 E1.27735
G1 X161.673 Y87.129 E.01675
G1 X174.727 Y115.122 E1.29411
G1 X174.533 Y115.654 E.0237
G1 X161.372 Y87.428 E1.30483
M73 P1 R114
G1 X161.178 Y87.96 E.02369
G1 X174.34 Y116.185 E1.30483
G1 X174.146 Y116.716 E.02369
G1 X160.985 Y88.491 E1.30483
M73 Q1 S114
G1 X160.978 Y88.509 E.0008
G1 X160.465 Y88.322 E.0229
G1 X173.953 Y117.248 E1.33721
G1 X173.76 Y117.779 E.02369
G1 X159.933 Y88.129 E1.37072
G1 X159.402 Y87.935 E.02369
G1 X173.566 Y118.311 E1.40423
G1 X173.373 Y118.842 E.02369
G1 X158.87 Y87.742 E1.43774
G1 X158.339 Y87.548 E.02369
G1 X173.179 Y119.374 E1.47125
G1 X172.986 Y119.905 E.02369
G1 X157.807 Y87.355 E1.50476
G1 X157.276 Y87.161 E.02369
G1 X172.792 Y120.437 E1.53827
G1 X172.599 Y120.968 E.02369
G1 X156.745 Y86.968 E1.57177
G1 X156.213 Y86.775 E.02369
G1 X172.406 Y121.499 E1.60528
G1 X172.212 Y122.031 E.02369
G1 X155.682 Y86.581 E1.63879
G1 X155.15 Y86.388 E.02369
G1 X172.019 Y122.562 E1.6723
G1 X171.825 Y123.094 E.02369
G1 X154.619 Y86.194 E1.70581
G1 X154.446 Y86.132 E.00769
G1 X154.202 Y86.246 E.01132
G1 X171.518 Y123.38 E1.71668
G1 X171.155 Y123.549 E.01675
G1 X153.839 Y86.415 E1.71668
G1 X153.477 Y86.584 E.01675
G1 X170.793 Y123.718 E1.71668
G1 X170.43 Y123.887 E.01675
G1 X153.114 Y86.753 E1.71668
G1 X152.752 Y86.922 E.01675
G1 X170.068 Y124.056 E1.71668
M73 P2 R114
M73 Q2 S114
G1 X169.911 Y124.129 E.00725
G1 X169.61 Y124.02 E.01344
G1 X152.485 Y87.296 E1.69768
G1 X152.292 Y87.828 E.02369
G1 X169.078 Y123.826 E1.66417
G1 X168.547 Y123.633 E.02369
G1 X152.04 Y88.234 E1.63646
G1 X151.508 Y88.04 E.02369
G1 X168.015 Y123.439 E1.63646
G1 X167.484 Y123.246 E.02369
G1 X150.977 Y87.847 E1.63645
G1 X150.446 Y87.653 E.02369
G1 X166.952 Y123.053 E1.63646
G1 X166.421 Y122.859 E.02369
G1 X149.914 Y87.46 E1.63646
G1 X149.383 Y87.267 E.02369
G1 X165.89 Y122.666 E1.63646
G1 X165.358 Y122.472 E.02369
G1 X148.851 Y87.073 E1.63646
G1 X148.32 Y86.88 E.02369
G1 X164.827 Y122.279 E1.63646
G1 X164.295 Y122.085 E.02369
G1 X147.788 Y86.686 E1.63646
G1 X147.257 Y86.493 E.02369
G1 X163.764 Y121.892 E1.63646
M73 P2 R113
G1 X163.379 Y121.752 E.01714
G1 X163.326 Y121.899 E.00655
G1 X146.726 Y86.299 E1.64572
G1 X146.194 Y86.106 E.02369
G1 X163.132 Y122.43 E1.67923
M73 Q2 S113
G1 X162.939 Y122.962 E.02369
G1 X145.663 Y85.913 E1.71274
G1 X145.6 Y85.89 E.00279
G1 X145.28 Y86.039 E.01478
G1 X162.596 Y123.174 E1.71668
G1 X162.234 Y123.343 E.01675
G1 X144.918 Y86.208 E1.71668
G1 X144.555 Y86.377 E.01675
G1 X161.871 Y123.512 E1.71668
G1 X161.509 Y123.681 E.01675
G1 X144.193 Y86.546 E1.71668
G1 X143.831 Y86.715 E.01675
G1 X161.147 Y123.85 E1.71668
G1 X161.065 Y123.888 E.00379
G1 X160.653 Y123.738 E.01834
G1 X143.599 Y87.164 E1.69075
G1 X143.405 Y87.696 E.0237
G1 X160.122 Y123.545 E1.65724
G1 X159.591 Y123.351 E.02369
G1 X143.084 Y87.952 E1.63646
G1 X142.552 Y87.759 E.02369
G1 X159.059 Y123.158 E1.63646
G1 X158.528 Y122.964 E.02369
G1 X142.021 Y87.565 E1.63646
G1 X141.489 Y87.372 E.02369
G1 X157.996 Y122.771 E1.63646
G1 X157.465 Y122.577 E.02369
G1 X140.958 Y87.178 E1.63646
G1 X140.427 Y86.985 E.02369
G1 X156.933 Y122.384 E1.63646
G1 X156.402 Y122.191 E.02369
G1 X139.895 Y86.792 E1.63646
G1 X139.364 Y86.598 E.02369
G1 X155.87 Y121.997 E1.63646
G1 X155.339 Y121.804 E.02369
G1 X138.832 Y86.405 E1.63646
G1 X138.301 Y86.211 E.02369
G1 X154.808 Y121.61 E1.63646
G1 X154.533 Y121.51 E.01224
G1 X154.439 Y121.767 E.01145
G1 X137.769 Y86.018 E1.65265
G1 X137.238 Y85.824 E.02369
G1 X154.246 Y122.299 E1.68616
G1 X154.07 Y122.783 E.02158
G1 X154.038 Y122.798 E.0015
M73 P3 R113
M73 Q3 S113
G1 X136.722 Y85.663 E1.71668
G1 X136.359 Y85.832 E.01675
G1 X153.675 Y122.967 E1.71668
G1 X153.313 Y123.136 E.01675
G1 X135.997 Y86.001 E1.71668
G1 X135.634 Y86.17 E.01675
G1 X152.95 Y123.305 E1.71668
G1 X152.588 Y123.474 E.01675
G1 X135.272 Y86.339 E1.71668
G1 X134.909 Y86.508 E.01675
G1 X152.218 Y123.646 E1.71668
G1 X151.697 Y123.456 E.02324
G1 X134.713 Y87.033 E1.68382
M73 P3 R112
G1 X134.519 Y87.564 E.02369
G1 X151.166 Y123.263 E1.65031
G1 X150.634 Y123.07 E.02369
G1 X134.128 Y87.67 E1.63645
M73 Q3 S112
G1 X133.596 Y87.477 E.02369
G1 X150.103 Y122.876 E1.63646
G1 X149.571 Y122.683 E.02369
G1 X133.065 Y87.284 E1.63646
G1 X132.533 Y87.09 E.02369
G1 X149.04 Y122.489 E1.63646
G1 X148.509 Y122.296 E.02369
G1 X132.002 Y86.897 E1.63646
G1 X131.47 Y86.703 E.02369
G1 X148.193 Y122.565 E1.65784
G1 X147.999 Y123.097 E.0237
G1 X130.939 Y86.51 E1.69135
G1 X130.537 Y86.364 E.01791
G1 X130.449 Y86.405 E.00409
G1 X147.765 Y123.539 E1.71668
G1 X147.402 Y123.708 E.01675
G1 X130.086 Y86.574 E1.71668
G1 X129.724 Y86.743 E.01675
G1 X147.04 Y123.877 E1.71668
G1 X146.677 Y124.046 E.01675
G1 X129.361 Y86.912 E1.71668
G1 X128.999 Y87.081 E.01675
G1 X146.315 Y124.215 E1.71668
G1 X146.002 Y124.361 E.01448
G1 X145.93 Y124.335 E.00321
G1 X128.659 Y87.299 E1.71214
G1 X128.466 Y87.83 E.0237
G1 X145.398 Y124.142 E1.67863
G1 X144.867 Y123.948 E.02369
G1 X128.273 Y88.362 E1.64512
G1 X128.223 Y88.499 E.00612
G1 X127.829 Y88.356 E.01757
G1 X144.335 Y123.755 E1.63646
G1 X143.804 Y123.562 E.02369
G1 X127.297 Y88.162 E1.63646
G1 X126.766 Y87.969 E.02369
G1 X143.272 Y123.368 E1.63646
G1 X142.741 Y123.175 E.02369
G1 X126.234 Y87.776 E1.63646
G1 X125.703 Y87.582 E.02369
G1 X142.21 Y122.981 E1.63646
G1 X141.678 Y122.788 E.02369
G1 X125.171 Y87.389 E1.63646
G1 X124.64 Y87.195 E.02369
G1 X141.147 Y122.594 E1.63646
G1 X140.615 Y122.401 E.02369
G1 X124.108 Y87.002 E1.63646
G1 X123.577 Y86.808 E.02369
G1 X140.084 Y122.208 E1.63646
G1 X139.552 Y122.014 E.02369
G1 X123.046 Y86.615 E1.63646
G1 X122.514 Y86.422 E.02369
G1 X139.307 Y122.433 E1.66477
G1 X139.113 Y122.965 E.0237
G1 X121.983 Y86.228 E1.69828
M73 P4 R112
M73 Q4 S112
G1 X121.691 Y86.122 E.01301
G1 X121.527 Y86.198 E.00755
G1 X138.844 Y123.333 E1.71668
G1 X138.481 Y123.502 E.01675
G1 X121.165 Y86.367 E1.71668
M73 P4 R111
G1 X120.803 Y86.536 E.01675
G1 X138.119 Y123.671 E1.71668
G1 X137.756 Y123.84 E.01675
G1 X120.44 Y86.705 E1.71668
M73 Q4 S111
G1 X120.078 Y86.874 E.01675
G1 X137.394 Y124.009 E1.71668
G1 X137.155 Y124.12 E.01102
G1 X136.973 Y124.054 E.00811
G1 X119.773 Y87.167 E1.70521
G1 X119.58 Y87.699 E.02369
G1 X136.442 Y123.86 E1.6717
G1 X135.911 Y123.667 E.02369
G1 X119.386 Y88.23 E1.63819
G1 X119.376 Y88.258 E.00123
G1 X118.872 Y88.074 E.02247
G1 X135.379 Y123.473 E1.63645
G1 X134.848 Y123.28 E.02369
G1 X118.341 Y87.881 E1.63645
G1 X117.809 Y87.687 E.02369
G1 X134.316 Y123.086 E1.63645
G1 X133.785 Y122.893 E.02369
G1 X117.278 Y87.494 E1.63645
G1 X116.747 Y87.3 E.02369
G1 X133.253 Y122.7 E1.63646
G1 X132.722 Y122.506 E.02369
G1 X116.215 Y87.107 E1.63645
G1 X115.684 Y86.914 E.02369
G1 X132.191 Y122.313 E1.63646
G1 X131.659 Y122.119 E.02369
G1 X115.152 Y86.72 E1.63646
G1 X114.621 Y86.527 E.02369
G1 X131.128 Y121.926 E1.63646
G1 X130.624 Y121.742 E.02247
G1 X130.614 Y121.77 E.00123
G1 X114.089 Y86.333 E1.63819
G1 X113.558 Y86.14 E.02369
G1 X130.42 Y122.301 E1.6717
G1 X130.227 Y122.833 E.0237
G1 X113.027 Y85.946 E1.70521
G1 X112.845 Y85.88 E.00811
G1 X112.606 Y85.991 E.01102
G1 X129.922 Y123.126 E1.71668
G1 X129.56 Y123.295 E.01675
G1 X112.244 Y86.16 E1.71668
G1 X111.881 Y86.329 E.01675
G1 X129.197 Y123.464 E1.71668
G1 X128.835 Y123.633 E.01675
G1 X111.519 Y86.498 E1.71668
G1 X111.157 Y86.667 E.01675
G1 X128.473 Y123.802 E1.71668
G1 X128.309 Y123.878 E.00755
G1 X128.017 Y123.772 E.01301
G1 X110.887 Y87.035 E1.69828
G1 X110.693 Y87.567 E.0237
G1 X127.486 Y123.578 E1.66477
G1 X126.954 Y123.385 E.02369
G1 X110.448 Y87.986 E1.63646
G1 X109.916 Y87.792 E.02369
G1 X126.423 Y123.192 E1.63646
G1 X125.892 Y122.998 E.02369
G1 X109.385 Y87.599 E1.63646
G1 X108.853 Y87.406 E.02369
